X:35
T: HOLZAEPFELBAEUMCHEN
N: E1030
O: Europa, Mitteleuropa, Deutschland, Rheinpfalz
R: Tanz - Lied
M: 2/4
L: 1/8
K: F
 | F2AF | c2B
B | AAGG | F2z2 |
FFAF | c2B
B | AAGG | F2z2

@@@ Tune index: 4719
